storage/app/icons/phosphoricons/regular/presentation.svg

<svg xmlns="http://www.w3.org/2000/svg" fill="currentColor" viewBox="0 0 256 256"><path d="M216 40h-80V24a8 8 0 0 0-16 0v16H40a16 16 0 0 0-16 16v120a16 16 0 0 0 16 16h39.36l-21.61 27a8 8 0 0 0 12.5 10l29.59-37h56.32l29.59 37a8 8 0 1 0 12.5-10l-21.61-27H216a16 16 0 0 0 16-16V56a16 16 0 0 0-16-16m0 136H40V56h176z"/></svg>

<svg xmlns="http://www.w3.org/2000/svg" viewBox="0 0 256 256" fill="currentColor"><path d="M216,40H136V24a8,8,0,0,0-16,0V40H40A16,16,0,0,0,24,56V176a16,16,0,0,0,16,16H79.36L57.75,219a8,8,0,0,0,12.5,10l29.59-37h56.32l29.59,37a8,8,0,1,0,12.5-10l-21.61-27H216a16,16,0,0,0,16-16V56A16,16,0,0,0,216,40Zm0,136H40V56H216V176Z"/></svg>
